app/assets/images/payment_icons/hypercard.svg

<?xml version="1.0" encoding="UTF-8"?>
<svg width="38px" height="24px" viewBox="0 0 38 24" version="1.1" xmlns="http://www.w3.org/2000/svg" xmlns:xlink="http://www.w3.org/1999/xlink" style="background: #FFFFFF;">
    <!-- Generator: Sketch 47.1 (45422) - http://www.bohemiancoding.com/sketch -->
    <title>hypercard</title>
    <desc>Created with Sketch.</desc>
    <defs></defs>
    <g id="Page-1" stroke="none" stroke-width="1" fill="none" fill-rule="evenodd">
        <g id="hypercard">
            <g id="Hypercard">
                <path d="M35,0 L3,0 C1.3,0 0,1.3 0,3 L0,21 C0,22.7 1.4,24 3,24 L35,24 C36.7,24 38,22.7 38,21 L38,3 C38,1.3 36.6,0 35,0 Z" id="Shape" fill="#000000" fill-rule="nonzero" opacity="0.07"></path>
                <path d="M35,1 C36.1,1 37,1.9 37,3 L37,21 C37,22.1 36.1,23 35,23 L3,23 C1.9,23 1,22.1 1,21 L1,3 C1,1.9 1.9,1 3,1 L35,1" id="Shape" fill="#FFFFFF" fill-rule="nonzero"></path>
                <path d="M11.9,5.1 C10.8,5.1 8.6,5.1 8.6,5.1 C7.2,5.2 6,5.7 5.7,6.9 C5.5,7.5 5.4,8.2 5.3,8.9 C4.6,12.2 4,15.6 3.3,18.8 L28.7,18.8 C30.7,18.8 32,18.4 32.4,16.8 C32.6,16.1 32.7,15.3 32.9,14.5 C33.5,11.4 34.2,8.3 34.8,5.1 C34.8,5.1 11.9,5.1 11.9,5.1 Z" id="fundo" fill="#B3131B" fill-rule="nonzero"></path>
                <path d="M6.38054082,9.31034121 L6.98546445,9.31034121 L6.98546445,11.1371504 L9.28477617,11.1371504 L9.28477617,9.31034121 L9.8896998,9.31034121 L9.8896998,13.7314 L9.28477617,13.7314 L9.28477617,11.6638252 L6.98546445,11.6638252 L6.98546445,13.7314 L6.38054082,13.7314 L6.38054082,9.31034121 Z M10.7444178,10.523198 L11.2951691,10.523198 L11.2951691,13.7314 L10.7444178,13.7314 L10.7444178,10.523198 Z M10.7444178,9.31034121 L11.2951691,9.31034121 L11.2951691,9.92429355 L10.7444178,9.92429355 L10.7444178,9.31034121 Z M14.104603,13.0497323 C14.2721366,12.8380582 14.3559021,12.5215548 14.3559021,12.1002129 C14.3559021,11.8433949 14.3187845,11.6226953 14.244548,11.4381074 C14.1041007,11.0829763 13.8472866,10.9054135 13.474098,10.9054135 C13.0989031,10.9054135 12.842089,11.0930082 12.703648,11.4682031 C12.6294116,11.6688421 12.5922939,11.9236499 12.5922939,12.232634 C12.5922939,12.4814264 12.6294116,12.6930974 12.703648,12.8676533 C12.8440954,13.2007141 13.1009095,13.367242 13.474098,13.367242 C13.7269032,13.367242 13.9370694,13.2614065 14.104603,13.0497323 Z M12.0716383,10.523198 L12.5983131,10.523198 L12.5983131,10.950557 C12.7066582,10.8040905 12.8250334,10.6907312 12.9534424,10.6104756 C13.1360239,10.4900922 13.3507044,10.4299014 13.5974904,10.4299014 C13.9626535,10.4299014 14.2726361,10.569845 14.5274477,10.8497364 C14.7822592,11.1296279 14.9096631,11.5293951 14.9096631,12.0490502 C14.9096631,12.7512868 14.7260811,13.2528768 14.3589117,13.5538354 C14.1261705,13.7444424 13.8553118,13.8397445 13.5463277,13.8397445 C13.3035545,13.8397445 13.099909,13.786576 12.935385,13.6802373 C12.8390782,13.6200456 12.731738,13.5167181 12.6133609,13.3702516 L12.6133609,15.0164865 L12.0716383,15.0164865 L12.0716383,10.523198 Z M17.5490562,10.5969325 C17.76374,10.7042744 17.9272584,10.8432148 18.0396162,11.013758 C18.1479613,11.1762756 18.2201902,11.3658767 18.2563053,11.5825668 C18.2884075,11.7310397 18.3044584,11.9677902 18.3044584,12.2928254 L15.9419457,12.2928254 C15.9519777,12.619867 16.0292225,12.8821986 16.1736826,13.079828 C16.3181427,13.2774575 16.5418519,13.3762707 16.8448168,13.3762707 C17.1277178,13.3762707 17.3534333,13.282975 17.5219701,13.0963807 C17.6182768,12.9880356 17.6864931,12.8626381 17.7266209,12.7201844 L18.2593148,12.7201844 C18.2452701,12.8385614 18.1986222,12.9704796 18.1193698,13.1159429 C18.0401174,13.2614062 17.951336,13.380283 17.8530229,13.472577 C17.6884989,13.6330882 17.4848533,13.7414316 17.2420801,13.7976105 C17.1116647,13.8297128 16.9641972,13.8457637 16.7996732,13.8457637 C16.3983952,13.8457637 16.0583171,13.699801 15.7794289,13.4078712 C15.5005407,13.1159414 15.3610986,12.7071455 15.3610986,12.1814713 C15.3610986,11.6638226 15.5015438,11.2434902 15.7824385,10.9204613 C16.0633331,10.5974325 16.430497,10.4359205 16.8839412,10.4359205 C17.1126697,10.4359205 17.3343725,10.4895906 17.5490562,10.5969325 Z M17.7476879,11.8624568 C17.7256176,11.6277092 17.6744554,11.4401145 17.5941998,11.2996672 C17.4457269,11.0388365 17.1979414,10.908423 16.8508359,10.908423 C16.6020435,10.908423 16.3933821,10.9982077 16.2248453,11.1777796 C16.0563085,11.3573515 15.9670255,11.585575 15.9569936,11.8624568 L17.7476879,11.8624568 Z M18.9846213,10.5081502 L19.4992578,10.5081502 L19.4992578,11.0649207 C19.541392,10.9565756 19.6447196,10.8246575 19.8092436,10.6691622 C19.9737676,10.513667 20.1633686,10.4359205 20.3780523,10.4359205 C20.3880843,10.4359205 20.4051384,10.4369237 20.429215,10.4389301 C20.4532917,10.4409365 20.4944221,10.4449492 20.5526074,10.4509684 L20.5526074,11.0227867 C20.5205052,11.0167675 20.4909114,11.0127548 20.4638251,11.0107484 C20.4367388,11.008742 20.407145,11.0077389 20.3750428,11.0077389 C20.1021737,11.0077389 19.8925091,11.0955171 19.7460426,11.2710763 C19.5995761,11.4466354 19.5263439,11.6487762 19.5263439,11.8775047 L19.5263439,13.7314 L18.9846213,13.7314 L18.9846213,10.5081502 Z M23.1513714,10.6796957 C23.3790967,10.856258 23.5160308,11.1602216 23.5621777,11.5915955 L23.0355029,11.5915955 C23.0034007,11.3929629 22.9301685,11.2279398 22.8158043,11.0965212 C22.7014401,10.9651026 22.5178581,10.8993943 22.2650529,10.8993943 C21.9199538,10.8993943 21.6731715,11.0679286 21.5246986,11.4050021 C21.4283919,11.6236987 21.3802393,11.8935541 21.3802393,12.2145766 C21.3802393,12.5376054 21.4484555,12.8094672 21.58489,13.0301701 C21.7213246,13.250873 21.9360051,13.3612229 22.2289381,13.3612229 C22.4536538,13.3612229 22.6317183,13.292505 22.7631368,13.1550673 C22.8945554,13.0176296 22.9853432,12.8295333 23.0355029,12.5907729 L23.5621777,12.5907729 C23.501986,13.018134 23.351509,13.3306246 23.1107422,13.528254 C22.8699754,13.7258834 22.5619991,13.8246967 22.1868041,13.8246967 C21.7654622,13.8246967 21.4293968,13.6707085 21.178598,13.3627276 C20.9277993,13.0547467 20.8024018,12.6700272 20.8024018,12.2085574 C20.8024018,11.6427554 20.9398374,11.2023593 21.2147129,10.8873561 C21.4895884,10.5723528 21.8396982,10.4148535 22.2650529,10.4148535 C22.6282096,10.4148535 22.9236461,10.5031334 23.1513714,10.6796957 Z M24.6907666,13.2438496 C24.8051308,13.3341372 24.9405602,13.3792803 25.0970586,13.3792803 C25.2876657,13.3792803 25.4722508,13.3351404 25.6508195,13.2468592 C25.9517781,13.1003927 26.1022551,12.8606327 26.1022551,12.5275719 L26.1022551,12.0911842 C26.0360442,12.1333184 25.9507739,12.1684297 25.8464416,12.1965191 C25.7421093,12.2246086 25.6397849,12.2446722 25.5394654,12.2567105 L25.2114223,12.2988445 C25.014796,12.3249276 24.8673286,12.366058 24.7690154,12.4222369 C24.602485,12.5165373 24.5192211,12.6670143 24.5192211,12.8736725 C24.5192211,13.0301709 24.5764024,13.153562 24.6907666,13.2438496 Z M25.8313938,11.7781889 C25.9557899,11.7621377 26.0390539,11.7099724 26.0811881,11.6216912 C26.1052648,11.5735378 26.1173029,11.5043184 26.1173029,11.4140309 C26.1173029,11.229443 26.0515946,11.0955184 25.9201761,11.0122532 C25.7887575,10.928988 25.6006612,10.8873561 25.3558816,10.8873561 C25.0729806,10.8873561 24.8723446,10.9635977 24.7539676,11.1160834 C24.6877567,11.2003518 24.64462,11.3257493 24.6245561,11.4922797 L24.1189482,11.4922797 C24.1289802,11.0950144 24.2578888,10.8186383 24.505678,10.6631431 C24.7534672,10.5076478 25.0408783,10.4299014 25.3679199,10.4299014 C25.7471277,10.4299014 26.055104,10.5021303 26.291858,10.6465904 C26.5266057,10.7910505 26.6439777,11.0157629 26.6439777,11.3207342 L26.6439777,13.1776391 C26.6439777,13.233818 26.6555143,13.2789611 26.6785878,13.3130697 C26.7016613,13.3471784 26.7503155,13.3642324 26.824552,13.3642324 C26.8486286,13.3642324 26.8757145,13.3627277 26.9058104,13.3597181 C26.9359062,13.3567085 26.968008,13.3521942 27.0021166,13.346175 L27.0021166,13.7464479 C26.9178482,13.7705245 26.8536447,13.7855722 26.8095041,13.7915914 C26.7653635,13.7976106 26.7051727,13.8006201 26.6289299,13.8006201 C26.4423356,13.8006201 26.3069063,13.7344102 26.2226379,13.6019885 C26.1784973,13.5317648 26.1473987,13.43245 26.1293412,13.304041 C26.0189897,13.4485011 25.8604873,13.5738986 25.6538291,13.6802373 C25.4471709,13.786576 25.219449,13.8397445 24.9706566,13.8397445 C24.6717045,13.8397445 24.4274301,13.7489567 24.2378263,13.5673784 C24.0482224,13.3858001 23.9534219,13.1585798 23.9534219,12.8857107 C23.9534219,12.5867586 24.0467176,12.355024 24.2333119,12.1905 C24.4199062,12.025976 24.6646821,11.9246548 24.9676471,11.8865334 L25.8313938,11.7781889 Z M27.5468488,10.5081502 L28.0614854,10.5081502 L28.0614854,11.0649207 C28.1036195,10.9565756 28.2069471,10.8246575 28.3714711,10.6691622 C28.5359951,10.513667 28.7255961,10.4359205 28.9402799,10.4359205 C28.9503118,10.4359205 28.9673659,10.4369237 28.9914426,10.4389301 C29.0155193,10.4409365 29.0566496,10.4449492 29.114835,10.4509684 L29.114835,11.0227867 C29.0827327,11.0167675 29.0531389,11.0127548 29.0260526,11.0107484 C28.9989664,11.008742 28.9693726,11.0077389 28.9372703,11.0077389 C28.6644012,11.0077389 28.4547366,11.0955171 28.3082701,11.2710763 C28.1618036,11.4466354 28.0885715,11.6487762 28.0885715,11.8775047 L28.0885715,13.7314 L27.5468488,13.7314 L27.5468488,10.5081502 Z M30.1471176,13.024151 C30.2935841,13.2568922 30.5283282,13.3732611 30.851357,13.3732611 C31.1021558,13.3732611 31.3083093,13.2654193 31.4698237,13.0497323 C31.6313381,12.8340454 31.7120941,12.5245643 31.7120941,12.1212799 C31.7120941,11.7139827 31.6288302,11.4125271 31.4622998,11.216904 C31.2957694,11.021281 31.0901175,10.9234709 30.8453379,10.9234709 C30.5724688,10.9234709 30.3512676,11.0278016 30.1817276,11.2364662 C30.0121877,11.4451308 29.9274189,11.7521039 29.9274189,12.1573947 C29.9274189,12.5024938 30.0006511,12.7914097 30.1471176,13.024151 Z M31.362984,10.607466 C31.4592907,10.6676577 31.5686373,10.7729916 31.6910271,10.9234709 L31.6910271,9.29529336 L32.2116828,9.29529336 L32.2116828,13.7314 L31.7241324,13.7314 L31.7241324,13.282974 C31.5977298,13.4816067 31.448256,13.6250614 31.2757064,13.7133426 C31.1031569,13.8016237 30.9055304,13.8457637 30.6828211,13.8457637 C30.3236772,13.8457637 30.0126914,13.6947851 29.7498543,13.3928233 C29.4870172,13.0908616 29.3556006,12.689088 29.3556006,12.1874904 C29.3556006,11.7179951 29.4754806,11.3112056 29.7152442,10.9671097 C29.9550079,10.6230137 30.2975939,10.4509684 30.7430125,10.4509684 C30.9897985,10.4509684 31.1964536,10.5031337 31.362984,10.607466 Z" id="Hipercard" fill="#FFFFFF"></path>
            </g>
        </g>
    </g>
</svg>

<svg width="38" height="24" xmlns="http://www.w3.org/2000/svg" style="background:#fff"><g fill="none" fill-rule="evenodd"><path d="M35 0H3C1.3 0 0 1.3 0 3v18c0 1.7 1.4 3 3 3h32c1.7 0 3-1.3 3-3V3c0-1.7-1.4-3-3-3z" fill="#000" fill-rule="nonzero" opacity=".07"/><path d="M35 1c1.1 0 2 .9 2 2v18c0 1.1-.9 2-2 2H3c-1.1 0-2-.9-2-2V3c0-1.1.9-2 2-2h32" fill="#FFF" fill-rule="nonzero"/><path d="M11.9 5.1H8.6c-1.4.1-2.6.6-2.9 1.8-.2.6-.3 1.3-.4 2-.7 3.3-1.3 6.7-2 9.9h25.4c2 0 3.3-.4 3.7-2 .2-.7.3-1.5.5-2.3.6-3.1 1.3-6.2 1.9-9.4H11.9z" fill="#B3131B" fill-rule="nonzero"/><path d="M6.38 9.31h.605v1.827h2.3V9.31h.605v4.421h-.605v-2.067h-2.3v2.067h-.604v-4.42zm4.364 1.213h.551v3.208h-.55v-3.208zm0-1.213h.551v.614h-.55V9.31zm3.36 3.74c.168-.212.252-.528.252-.95 0-.257-.037-.477-.111-.662-.14-.355-.398-.533-.77-.533-.376 0-.633.188-.771.563a2.23 2.23 0 0 0-.112.765c0 .248.037.46.112.635.14.333.397.5.77.5a.773.773 0 0 0 .63-.318zm-2.032-2.527h.526v.428c.109-.147.227-.26.355-.34.183-.12.398-.181.644-.181.366 0 .676.14.93.42.255.28.383.68.383 1.2 0 .701-.184 1.203-.551 1.504-.233.19-.504.286-.813.286-.242 0-.446-.053-.61-.16a1.408 1.408 0 0 1-.323-.31v1.646h-.541v-4.493zm5.477.074c.215.107.378.246.49.417.109.162.181.352.217.569.032.148.048.385.048.71h-2.362c.01.327.087.59.232.787.144.197.368.296.67.296.284 0 .51-.093.678-.28a.944.944 0 0 0 .205-.376h.532c-.014.119-.06.25-.14.396-.079.145-.168.264-.266.357-.165.16-.368.268-.61.325-.131.032-.279.048-.443.048-.402 0-.742-.146-1.02-.438-.28-.292-.419-.7-.419-1.227 0-.517.14-.938.421-1.26.281-.324.648-.485 1.102-.485.229 0 .45.054.665.16zm.199 1.265a1.403 1.403 0 0 0-.154-.562c-.148-.261-.396-.392-.743-.392a.824.824 0 0 0-.626.27c-.169.18-.258.408-.268.684h1.79zm1.237-1.354h.514v.557c.042-.108.146-.24.31-.396a.804.804 0 0 1 .62-.23l.124.012v.572a.81.81 0 0 0-.178-.015c-.273 0-.482.088-.629.263a.92.92 0 0 0-.22.607v1.853h-.541v-3.223zm4.166.172c.228.176.365.48.411.912h-.526a.972.972 0 0 0-.22-.495c-.115-.132-.298-.198-.55-.198-.346 0-.593.169-.741.506-.097.219-.145.489-.145.81 0 .323.068.594.205.815.136.22.351.331.644.331.225 0 .403-.068.534-.206.132-.137.222-.325.273-.564h.526c-.06.427-.21.74-.451.937-.241.198-.549.297-.924.297-.422 0-.758-.154-1.008-.462-.251-.308-.377-.693-.377-1.154 0-.566.138-1.007.413-1.322a1.332 1.332 0 0 1 1.05-.472c.363 0 .659.088.886.265zm1.54 2.564c.114.09.25.135.406.135.19 0 .375-.044.554-.132a.745.745 0 0 0 .451-.72v-.436a.927.927 0 0 1-.256.106 2.18 2.18 0 0 1-.307.06l-.328.042a1.255 1.255 0 0 0-.442.123c-.167.095-.25.245-.25.452 0 .156.057.28.172.37zm1.14-1.466c.125-.016.208-.068.25-.156a.476.476 0 0 0 .036-.208c0-.185-.065-.318-.197-.402-.131-.083-.32-.125-.564-.125-.283 0-.484.077-.602.23a.752.752 0 0 0-.13.375h-.505c.01-.397.139-.673.387-.829.247-.155.535-.233.862-.233.38 0 .687.072.924.217.235.144.352.369.352.674v1.857c0 .056.012.101.035.135.023.034.071.051.146.051a.824.824 0 0 0 .177-.018v.4c-.084.025-.148.04-.192.046a1.408 1.408 0 0 1-.181.009c-.187 0-.322-.067-.406-.199a.767.767 0 0 1-.094-.298c-.11.145-.269.27-.475.376a1.47 1.47 0 0 1-.683.16c-.3 0-.544-.091-.733-.273a.905.905 0 0 1-.285-.681c0-.3.094-.531.28-.695.187-.165.432-.266.735-.304l.863-.109zm1.716-1.27h.514v.557c.043-.108.146-.24.31-.396a.804.804 0 0 1 .62-.23l.124.012v.572a.81.81 0 0 0-.178-.015c-.273 0-.482.088-.629.263a.92.92 0 0 0-.22.607v1.853h-.541v-3.223zm2.6 2.516c.147.233.381.35.704.35.251 0 .457-.109.619-.324.161-.216.242-.525.242-.929 0-.407-.083-.708-.25-.904a.78.78 0 0 0-.617-.294.814.814 0 0 0-.663.313c-.17.21-.255.516-.255.921 0 .345.074.634.22.867zm1.216-2.417c.096.06.206.166.328.316V9.295h.52v4.436h-.487v-.448a1.172 1.172 0 0 1-.448.43c-.173.089-.37.133-.593.133-.36 0-.67-.151-.933-.453-.263-.302-.394-.704-.394-1.206 0-.469.12-.876.36-1.22.239-.344.582-.516 1.027-.516.247 0 .453.052.62.156z" fill="#FFF"/></g></svg>
